X:0
T:Lydian/Major/Mixolydian (4,7-gap, fa/do/so) Pentatonic Scales
M:6/8
L:1/8
K:DbLyd
"^D flat"  DEF ABd|dBA FED||\
K:AbLyd
"^A flat"  ABc efa|afe cBA||
K:EbLyd
"^E flat"  EFG Bce|ecB GFE||\
K:BbLyd
"^B flat"  Bcd fgb|bgf dcB||
K:FLyd
"^F"       FGA cdf|fdc AGF||\
K:C
"^C"       CDE GAc|cAG EDC||\
K:GMix
"^G"       GAB deg|ged BAG||
K:DMix
"^D"       DEF ABd|dBA FED||\
K:AMix
"^A"       ABc efa|afe cBA||
K:EMix
"^E"       EFG Bce|ecB GFE|\
K:BMix
"^B"       Bcd fgb|bgf dcB|]


3.5. The Major/Mixolydian/Dorian Pentatonic Mode
==== ===========================================

The MAJOR/MIXOLYDIAN/DORIAN PENTATONIC mode is what you get by playing on
the black notes of the piano, taking C sharp as the home note.  It could
be taken as being major, mixolydian or dorian; the third and seventh are
missing.  Its interval sequence is TmTTm; in A it's ABde^fa.  It could be
done on the pipes as the A-mode with the GC-gap pitch set, or the D-mode
with the CF-gap set.  But it doesn't appear to be used as the sole mode in
any Scottish tune; some pipe tunes come close for long stretches, but where
there are notes that bridge the gaps, they matter.  In sol-fa, it can start
on do, so or re.

